src/containers/site/SiteInvestmentScreen/asset/investment_feature_2.svg

<svg width="64" height="71" viewBox="0 0 64 71" fill="none" xmlns="http://www.w3.org/2000/svg">
<path d="M56.9765 6.22512C41.3985 -2.07504 22.5545 -2.07504 7 6.22512V17.452C7 37.4822 17.1974 54.7684 32 63C46.8026 54.7913 57 37.4822 57 17.452L56.9765 6.22512Z" fill="url(#paint0_linear)"/>
<path fill-rule="evenodd" clip-rule="evenodd" d="M28.3852 68.9821L32 71L35.6148 68.9594C44.0956 64.2206 51.2093 56.9651 56.2375 47.9411C61.3121 38.8491 64 28.3059 64 17.5134V15.9036C64 14.4751 63.2585 13.1827 62.0304 12.4345C53.0167 6.92487 42.6358 4 32 4C21.3642 4 10.9833 6.92487 1.96959 12.4572C0.741492 13.2054 0 14.5205 0 15.9262V17.536C0 28.3286 2.68791 38.8491 7.76249 47.9638C12.7907 56.9878 19.9276 64.2433 28.3852 68.9821ZM3.93917 15.5181C12.3736 10.3486 22.0594 7.62775 32 7.62775C41.9406 7.62775 51.6264 10.3712 60.0608 15.5181C60.1767 15.6088 60.2694 15.7448 60.2694 15.9036V17.5134C60.2694 27.7164 57.7437 37.6474 52.9703 46.2179C48.2665 54.6298 41.6394 61.4091 33.761 65.8078L32 66.8054L30.239 65.8078C22.3606 61.4091 15.7104 54.6525 11.0297 46.2179C6.25633 37.6474 3.73063 27.7164 3.73063 17.5134V15.9036C3.73063 15.7448 3.80014 15.6088 3.93917 15.5181Z" fill="url(#paint1_linear)"/>
<path fill-rule="evenodd" clip-rule="evenodd" d="M42.3365 25.1988C42.0074 21.9168 39.1391 20.8305 35.5185 20.53V16H32.6973V20.4145C32.3328 20.4145 31.9567 20.4203 31.5805 20.426L31.5803 20.426C31.2042 20.4318 30.8281 20.4376 30.4638 20.4376V16H27.666V20.53C27.0547 20.5532 26.467 20.5532 25.8792 20.5532V20.53H22V23.4884C22 23.4884 24.0689 23.4422 24.0454 23.4884C25.1739 23.4884 25.5501 24.1356 25.6676 24.6903V29.8675C25.7382 29.8675 25.8557 29.8675 25.9733 29.8906H25.6676V37.1248C25.6206 37.4715 25.409 38.0493 24.6097 38.0493C24.6567 38.0724 22.5643 38.0493 22.5643 38.0493L22 41.3544H25.6676C26.0115 41.3544 26.3494 41.3603 26.6844 41.3661L26.6847 41.3661C27.0137 41.3718 27.3399 41.3775 27.666 41.3775V45.9769H30.4638V41.4468C31.2395 41.47 31.9918 41.47 32.6971 41.47H32.6973V46H35.5185V41.4237C40.2441 41.1464 43.5591 39.9908 43.9588 35.6225C44.2879 32.1094 42.6187 30.5378 39.9385 29.9137C41.5607 29.0354 42.5717 27.6025 42.3365 25.1988ZM38.4103 35.0216C38.4103 38.1734 33.3404 38.1071 31.0538 38.0772C30.8588 38.0747 30.684 38.0724 30.5343 38.0724V31.9938C30.7043 31.9918 30.9067 31.9857 31.1344 31.9788C33.4573 31.9086 38.4103 31.759 38.4103 35.0216ZM30.9991 29.1797C32.9127 29.2116 37.0937 29.2815 37.0937 26.4237C37.0937 23.5449 33.1484 23.6115 31.1687 23.645C30.9233 23.6491 30.708 23.6528 30.5343 23.6502V29.1741C30.6668 29.1741 30.8234 29.1767 30.9991 29.1797Z" fill="white"/>
<defs>
<linearGradient id="paint0_linear" x1="6.98463" y1="62.9966" x2="56.9666" y2="62.9966" gradientUnits="userSpaceOnUse">
<stop stop-color="#FFB300"/>
<stop offset="1" stop-color="#FF8E37"/>
</linearGradient>
<linearGradient id="paint1_linear" x1="0.0177031" y1="70.9841" x2="63.9804" y2="70.9841" gradientUnits="userSpaceOnUse">
<stop stop-color="#5C8BFC"/>
<stop offset="1" stop-color="#84B0FF"/>
</linearGradient>
</defs>
</svg>

<svg width="64" height="71" fill="none" xmlns="http://www.w3.org/2000/svg"><path d="M56.977 6.225c-15.578-8.3-34.422-8.3-49.977 0v11.227C7 37.482 17.197 54.768 32 63c14.803-8.209 25-25.518 25-45.548l-.023-11.227z" fill="url(#paint0_linear)"/><path fill-rule="evenodd" clip-rule="evenodd" d="M28.385 68.982L32 71l3.615-2.04c8.48-4.74 15.594-11.995 20.622-21.019C61.313 38.85 64 28.306 64 17.513v-1.61c0-1.428-.742-2.72-1.97-3.469A57.55 57.55 0 0032 4a57.361 57.361 0 00-30.03 8.457A4.07 4.07 0 000 15.927v1.609c0 10.793 2.688 21.313 7.762 30.428 5.029 9.024 12.166 16.28 20.623 21.018zM3.94 15.518c8.435-5.17 18.12-7.89 28.061-7.89 9.94 0 19.626 2.743 28.06 7.89.117.09.21.227.21.386v1.61c0 10.202-2.526 20.133-7.3 28.704-4.703 8.412-11.33 15.191-19.209 19.59L32 66.805l-1.761-.997c-7.878-4.399-14.529-11.156-19.21-19.59-4.773-8.57-7.298-18.502-7.298-28.705v-1.61c0-.158.07-.294.208-.385z" fill="url(#paint1_linear)"/><path fill-rule="evenodd" clip-rule="evenodd" d="M42.337 25.199c-.33-3.282-3.198-4.369-6.819-4.669V16h-2.82v4.415c-.365 0-.741.005-1.117.011-.377.006-.753.012-1.117.012V16h-2.798v4.53c-.611.023-1.199.023-1.787.023v-.023H22v2.958s2.069-.046 2.045 0c1.129 0 1.505.648 1.623 1.202v5.177c.07 0 .188 0 .305.024h-.305v7.234c-.047.346-.259.924-1.058.924.047.023-2.046 0-2.046 0L22 41.354h3.668c.344 0 .681.006 1.016.012.33.006.656.011.982.011v4.6h2.798v-4.53c.776.023 1.528.023 2.233.023V46h2.822v-4.576c4.725-.278 8.04-1.433 8.44-5.801.329-3.514-1.34-5.085-4.02-5.71 1.622-.878 2.633-2.31 2.398-4.714zm-3.927 9.823c0 3.151-5.07 3.085-7.356 3.055-.195-.002-.37-.005-.52-.005v-6.078c.17-.002.373-.008.6-.015 2.323-.07 7.276-.22 7.276 3.043zM31 29.18c1.913.032 6.094.102 6.094-2.756 0-2.88-3.946-2.813-5.925-2.779-.246.004-.461.008-.635.005v5.524c.133 0 .29.003.465.006z" fill="#fff"/><defs><linearGradient id="paint0_linear" x1="6.985" y1="62.997" x2="56.967" y2="62.997" gradientUnits="userSpaceOnUse"><stop stop-color="#FFB300"/><stop offset="1" stop-color="#FF8E37"/></linearGradient><linearGradient id="paint1_linear" x1=".018" y1="70.984" x2="63.98" y2="70.984" gradientUnits="userSpaceOnUse"><stop stop-color="#5C8BFC"/><stop offset="1" stop-color="#84B0FF"/></linearGradient></defs></svg>
